client/public/img/game/weapons/kbar.svg

<?xml version="1.0" encoding="UTF-8" standalone="no"?>
<svg
   width="110"
   height="110"
   viewBox="0 0 110 110"
   fill="none"
   version="1.1"
   id="svg16"
   sodipodi:docname="kbar.svg"
   inkscape:version="1.1.2 (0a00cf5339, 2022-02-04)"
   xmlns:inkscape="http://www.inkscape.org/namespaces/inkscape"
   xmlns:sodipodi="http://sodipodi.sourceforge.net/DTD/sodipodi-0.dtd"
   xmlns="http://www.w3.org/2000/svg"
   xmlns:svg="http://www.w3.org/2000/svg">
  <defs
     id="defs20" />
  <sodipodi:namedview
     id="namedview18"
     pagecolor="#505050"
     bordercolor="#ffffff"
     borderopacity="1"
     inkscape:pageshadow="0"
     inkscape:pageopacity="0"
     inkscape:pagecheckerboard="1"
     showgrid="false"
     inkscape:zoom="8.5392157"
     inkscape:cx="55.040184"
     inkscape:cy="50.941447"
     inkscape:window-width="2560"
     inkscape:window-height="1372"
     inkscape:window-x="0"
     inkscape:window-y="0"
     inkscape:window-maximized="1"
     inkscape:current-layer="svg16" />
  <g
     id="g844"
     transform="matrix(1.0053595,0,0,1.0053595,-0.29521299,3.7272579)">
    <path
       d="M 50.1524,61.7137 27.0683,84.0138 14.498,96.1572 c 0.6731,1.5148 -1.5941,3.4844 -2.2363,4.1268 C 10.9774,101.568 8.6339,99.7506 5.2952,96.4119 1.95649,93.0732 0.327521,90.9182 1.61184,89.6338 2.254,88.9917 4.23365,86.7345 5.74847,87.4077 L 41.4089,52.7959 Z"
       fill="#3a2d22"
       stroke="#1d1611"
       stroke-width="1.76071"
       id="path2" />
    <path
       d="m 41.4087,52.7974 8.7434,8.9177 -5.3581,5.7098 c -0.8476,-0.7015 -3.413,-2.848 -5.2229,-4.658 -1.5871,-1.587 -3.2875,-3.7847 -4.0961,-4.8623 z m -7.4212,6.3874 c 0.7649,1.0246 2.5351,3.3315 4.1847,4.981 1.8571,1.8571 4.5027,4.0627 5.2725,4.6986 L 38.6905,73.931 C 38.2609,73.5787 35.2687,71.1103 33.2482,69.0897 31.1888,67.0304 28.9883,64.014 28.754,63.691 Z m -6.7195,5.7879 c 0,0 2.4054,3.343 4.5799,5.5175 2.0659,2.0659 5.1763,4.6229 5.4903,4.8803 l -3.1358,3.3433 -1.7956,1.5551 c 0,0 -3.4286,-2.8005 -5.6031,-4.975 -2.1744,-2.1744 -4.6474,-5.576 -4.6474,-5.576 l 1.6408,-1.758 z m -6.47,6.2176 c 0.6119,0.8296 2.7983,3.6939 4.6068,5.5025 2.1069,2.1068 5.3304,4.7509 5.5325,4.9164 l -5.2515,4.6564 C 24.8166,85.5458 22.2752,83.414 20.4794,81.6182 18.5075,79.6463 16.4357,76.8371 16.0498,76.3081 Z m -6.1035,6.5783 c 0.4762,0.6503 2.4734,3.3359 4.386,5.2485 1.7079,1.7079 4.1281,3.7506 5.1148,4.5708 l -5.25,4.655 C 17.802,91.2843 15.681,89.4684 14.1552,87.9425 12.45,86.2373 10.6452,83.8723 9.92693,82.9059 Z m -6.1229,6.5978 c 0.76763,1.028 2.5387,3.3291 4.1847,4.975 1.4864,1.4865 3.5354,3.2467 4.6985,4.2238 l -2.957,2.5934 -8.74951,-8.7495 z"
       fill="#7c4c33"
       stroke="#21140d"
       stroke-width="1.76071"
       stroke-linecap="round"
       stroke-linejoin="round"
       id="path4" />
    <path
       d="m 108.827,1.37674 c 0,0 -8.8783,-0.475914 -12.9547,0.98604 -5.2859,1.89575 -10.8799,6.78656 -13.782,9.68862 -2.9021,2.9021 -39.4651,39.2904 -39.4651,39.2904 l 9.6452,9.6452 34.4258,-34.7683 c 0,0 7.013,-9.049 10.7879,-13.3166 C 101.259,8.63458 108.827,1.37674 108.827,1.37674 Z"
       fill="#353130"
       stroke="#181616"
       stroke-width="1.76071"
       stroke-linecap="round"
       stroke-linejoin="round"
       id="path6" />
    <path
       d="m 100.027,5.95564 c 0,0 -3.5725,0.64372 -5.9828,2.53603 C 91.6339,10.384 88.608,12.9399 85.7059,15.842 84.2548,17.293 51.6012,49.0574 51.6012,49.0574 L 48.317,45.6496 42.6558,51.3724 52.27,60.9867 83.826,29.1168 c 0,0 6.1513,-12.6185 9.9262,-16.8861 3.7749,-4.26756 6.2748,-6.27506 6.2748,-6.27506 z"
       fill="#565551"
       stroke="#181716"
       stroke-width="0.754588"
       stroke-linecap="round"
       stroke-linejoin="round"
       id="path8" />
    <path
       d="m 74.5655,29.108 c 0.5188,-0.5181 1.2049,-0.8264 1.9073,-0.857 0.7023,-0.0305 1.3636,0.2191 1.8384,0.694 0.4749,0.4748 0.7245,1.136 0.6939,1.8384 -0.0305,0.7024 -0.3388,1.3884 -0.8569,1.9073 L 60.8536,49.9853 c -0.2568,0.2571 -0.5575,0.4653 -0.8849,0.6128 -0.3274,0.1475 -0.6751,0.2313 -1.0232,0.2466 -0.3481,0.0154 -0.6898,-0.0379 -1.0055,-0.157 -0.3157,-0.1191 -0.5993,-0.3015 -0.8346,-0.5368 -0.2354,-0.2353 -0.4178,-0.5189 -0.5368,-0.8347 -0.1191,-0.3157 -0.1725,-0.6574 -0.1571,-1.0055 0.0154,-0.3481 0.0992,-0.6957 0.2467,-1.0231 0.1474,-0.3274 0.3557,-0.6281 0.6127,-0.885 z"
       fill="#3c3936"
       stroke="#181716"
       stroke-width="0.754588"
       stroke-linecap="round"
       stroke-linejoin="round"
       id="path10" />
    <path
       d="m 108.827,1.37674 c 0,0 -8.8783,-0.475914 -12.9547,0.98604 -5.2859,1.89575 -10.8799,6.78656 -13.782,9.68862 -2.9021,2.9021 -39.4651,39.2904 -39.4651,39.2904 l 9.6452,9.6452 34.4258,-34.7683 c 0,0 7.013,-9.049 10.7879,-13.3166 C 101.259,8.63458 108.827,1.37674 108.827,1.37674 Z"
       stroke="#181616"
       stroke-width="1.76071"
       stroke-linecap="round"
       stroke-linejoin="round"
       id="path12" />
    <path
       d="M 57.0365,65.2441 C 57.0633,64.5193 51.9964,57.8687 48.87,54.7422 45.7435,51.6157 39.2404,46.4957 38.3681,46.5756 c -0.8723,0.08 -1.2543,0.8225 -1.157,1.2807 0.0973,0.4581 3.3308,2.8361 3.3308,2.8361 l 0.8671,2.1036 c 0,0 2.8084,2.8957 4.3717,4.4589 1.5632,1.5632 4.3717,4.4589 4.3717,4.4589 l 2.0907,0.767 c 0,0 2.9415,4.2301 3.6365,4.0439 0.695,-0.1862 1.1302,-0.5558 1.1569,-1.2806 z"
       fill="#2b2723"
       stroke="#191715"
       stroke-width="1.76071"
       stroke-linecap="round"
       stroke-linejoin="round"
       id="path14" />
  </g>
</svg>

<svg width="110" height="102" viewBox="0 0 110 102" fill="none" xmlns="http://www.w3.org/2000/svg">
<path d="M50.1524 61.7137L27.0683 84.0138L14.498 96.1572C15.1711 97.672 12.9039 99.6416 12.2617 100.284C10.9774 101.568 8.6339 99.7506 5.2952 96.4119C1.95649 93.0732 0.327521 90.9182 1.61184 89.6338C2.254 88.9917 4.23365 86.7345 5.74847 87.4077L41.4089 52.7959L50.1524 61.7137Z" fill="#3A2D22" stroke="#1D1611" stroke-width="1.76071"/>
<path d="M41.4087 52.7974L50.1521 61.7151L44.794 67.4249C43.9464 66.7234 41.381 64.5769 39.5711 62.7669C37.984 61.1799 36.2836 58.9822 35.475 57.9046L41.4087 52.7974ZM33.9875 59.1848C34.7524 60.2094 36.5226 62.5163 38.1722 64.1658C40.0293 66.0229 42.6749 68.2285 43.4447 68.8644L38.6905 73.931C38.2609 73.5787 35.2687 71.1103 33.2482 69.0897C31.1888 67.0304 28.9883 64.014 28.754 63.691L33.9875 59.1848ZM27.268 64.9727C27.268 64.9727 29.6734 68.3157 31.8479 70.4902C33.9138 72.5561 37.0242 75.1131 37.3382 75.3705L34.2024 78.7138L32.4068 80.2689C32.4068 80.2689 28.9782 77.4684 26.8037 75.2939C24.6293 73.1195 22.1563 69.7179 22.1563 69.7179L23.7971 67.9599L27.268 64.9727ZM20.798 71.1903C21.4099 72.0199 23.5963 74.8842 25.4048 76.6928C27.5117 78.7996 30.7352 81.4437 30.9373 81.6092L25.6858 86.2656C24.8166 85.5458 22.2752 83.414 20.4794 81.6182C18.5075 79.6463 16.4357 76.8371 16.0498 76.3081L20.798 71.1903ZM14.6945 77.7686C15.1707 78.4189 17.1679 81.1045 19.0805 83.0171C20.7884 84.725 23.2086 86.7677 24.1953 87.5879L18.9453 92.2429C17.802 91.2843 15.681 89.4684 14.1552 87.9425C12.45 86.2373 10.6452 83.8723 9.92693 82.9059L14.6945 77.7686ZM8.5716 84.3664C9.33923 85.3944 11.1103 87.6955 12.7563 89.3414C14.2427 90.8279 16.2917 92.5881 17.4548 93.5652L14.4978 96.1586L5.74829 87.4091L8.5716 84.3664Z" fill="#7C4C33" stroke="#21140D" stroke-width="1.76071" stroke-linecap="round" stroke-linejoin="round"/>
<path d="M108.827 1.37674C108.827 1.37674 99.9487 0.900826 95.8723 2.36278C90.5864 4.25853 84.9924 9.14934 82.0903 12.0514C79.1882 14.9535 42.6252 51.3418 42.6252 51.3418L52.2704 60.987L86.6962 26.2187C86.6962 26.2187 93.7092 17.1697 97.4841 12.9021C101.259 8.63458 108.827 1.37674 108.827 1.37674Z" fill="#353130" stroke="#181616" stroke-width="1.76071" stroke-linecap="round" stroke-linejoin="round"/>
<path d="M100.027 5.95564C100.027 5.95564 96.4545 6.59936 94.0442 8.49167C91.6339 10.384 88.608 12.9399 85.7059 15.842C84.2548 17.293 51.6012 49.0574 51.6012 49.0574L48.317 45.6496L42.6558 51.3724L52.27 60.9867L83.826 29.1168C83.826 29.1168 89.9773 16.4983 93.7522 12.2307C97.5271 7.96314 100.027 5.95564 100.027 5.95564Z" fill="#565551" stroke="#181716" stroke-width="0.754588" stroke-linecap="round" stroke-linejoin="round"/>
<path d="M74.5655 29.108C75.0843 28.5899 75.7704 28.2816 76.4728 28.251C77.1751 28.2205 77.8364 28.4701 78.3112 28.945C78.7861 29.4198 79.0357 30.081 79.0051 30.7834C78.9746 31.4858 78.6663 32.1718 78.1482 32.6907L60.8536 49.9853C60.5968 50.2424 60.2961 50.4506 59.9687 50.5981C59.6413 50.7456 59.2936 50.8294 58.9455 50.8447C58.5974 50.8601 58.2557 50.8068 57.94 50.6877C57.6243 50.5686 57.3407 50.3862 57.1054 50.1509C56.87 49.9156 56.6876 49.632 56.5686 49.3162C56.4495 49.0005 56.3961 48.6588 56.4115 48.3107C56.4269 47.9626 56.5107 47.615 56.6582 47.2876C56.8056 46.9602 57.0139 46.6595 57.2709 46.4026L74.5655 29.108Z" fill="#3C3936" stroke="#181716" stroke-width="0.754588" stroke-linecap="round" stroke-linejoin="round"/>
<path d="M108.827 1.37674C108.827 1.37674 99.9487 0.900826 95.8723 2.36278C90.5864 4.25853 84.9924 9.14934 82.0903 12.0514C79.1882 14.9535 42.6252 51.3418 42.6252 51.3418L52.2704 60.987L86.6962 26.2187C86.6962 26.2187 93.7092 17.1697 97.4841 12.9021C101.259 8.63458 108.827 1.37674 108.827 1.37674Z" stroke="#181616" stroke-width="1.76071" stroke-linecap="round" stroke-linejoin="round"/>
<path d="M57.0365 65.2441C57.0633 64.5193 51.9964 57.8687 48.87 54.7422C45.7435 51.6157 39.2404 46.4957 38.3681 46.5756C37.4958 46.6556 37.1138 47.3981 37.2111 47.8563C37.3084 48.3144 40.5419 50.6924 40.5419 50.6924L41.409 52.796C41.409 52.796 44.2174 55.6917 45.7807 57.2549C47.3439 58.8181 50.1524 61.7138 50.1524 61.7138L52.2431 62.4808C52.2431 62.4808 55.1846 66.7109 55.8796 66.5247C56.5746 66.3385 57.0098 65.9689 57.0365 65.2441Z" fill="#2B2723" stroke="#191715" stroke-width="1.76071" stroke-linecap="round" stroke-linejoin="round"/>
</svg>
